local/share/icons/dracula-icons-main/scalable/apps/brackets.svg

<?xml version="1.0" encoding="UTF-8"?>
<svg xmlns="http://www.w3.org/2000/svg" xmlns:xlink="http://www.w3.org/1999/xlink" width="64" height="64" viewBox="0 0 64 64">
<defs>
<filter id="filter-remove-color" x="0%" y="0%" width="100%" height="100%">
<feColorMatrix color-interpolation-filters="sRGB" values="0 0 0 0 1 0 0 0 0 1 0 0 0 0 1 0 0 0 1 0" />
</filter>
<mask id="mask-0">
<g filter="url(#filter-remove-color)">
<rect x="-6.4" y="-6.4" width="76.8" height="76.8" fill="rgb(0%, 0%, 0%)" fill-opacity="0.15"/>
</g>
</mask>
<image id="source-13567" x="0" y="0" width="17" height="17" xlink:href="data:image/png;base64,iVBORw0KGgoAAAANSUhEUgAAABEAAAARCAYAAAA7bUf6AAAABmJLR0QA/wD/AP+gvaeTAAABEUlEQVQ4jc3TMUrDYBjG8f+TRCc3iw4aQVFB9AjmEoIJjqWI4KKLR3DxACIURBeHQs9gDmE1OAgSxFZQl6JL09fFipCUppO+2/cMP/7LB//lVDSuN9LlTLYnIwAqoI7JYq/nnt3szKUjkbVGegR2DEwU+J9mOkgivz4U+QZORuYbtdto4TyHrDYfl9xMd8DkKAToOmQrrXCxDeAMVq+n/ZIAwFQmpzp4/CAmNksCAMgU5BBgehzEoFKA6GWsEtTJISaLxyux6xzSN50CHyWNdzznMofch/6TmQ7LRJhpN9maf80hAEnk12XUgO6wAjNtJ5Hf/D0W/p2Nq4fZnudWBQFoRvDch9hFF63QfytR+0f3BQHqVLftmsR4AAAAAElFTkSuQmCC"/>
</defs>
<path fill-rule="nonzero" fill="rgb(16.078431%, 66.666667%, 88.627451%)" fill-opacity="1" d="M 15.609375 8.464844 C 15.609375 12.410156 12.410156 15.609375 8.464844 15.609375 C 4.519531 15.609375 1.324219 12.410156 1.324219 8.464844 C 1.324219 4.519531 4.519531 1.324219 8.464844 1.324219 C 12.410156 1.324219 15.609375 4.519531 15.609375 8.464844 Z M 15.609375 8.464844 "/>
<g mask="url(#mask-0)">
<use xlink:href="#source-13567"/>
</g>
<path fill-rule="nonzero" fill="rgb(100%, 100%, 100%)" fill-opacity="1" d="M 14.550781 8.464844 C 14.550781 11.828125 11.828125 14.550781 8.464844 14.550781 C 5.105469 14.550781 2.382812 11.828125 2.382812 8.464844 C 2.382812 5.105469 5.105469 2.382812 8.464844 2.382812 C 11.828125 2.382812 14.550781 5.105469 14.550781 8.464844 Z M 14.550781 8.464844 "/>
<path fill-rule="nonzero" fill="rgb(30.196078%, 30.196078%, 30.196078%)" fill-opacity="1" d="M 4.761719 4.761719 L 4.761719 12.171875 L 8.128906 12.171875 L 8.128906 10.488281 L 6.445312 10.488281 L 6.445312 6.445312 L 8.128906 6.445312 L 8.128906 4.761719 Z M 8.804688 4.761719 L 8.804688 6.445312 L 10.488281 6.445312 L 10.488281 10.488281 L 8.804688 10.488281 L 8.804688 12.171875 L 12.171875 12.171875 L 12.171875 4.761719 Z M 8.804688 4.761719 "/>
</svg>

<svg width="64" height="64" version="1.1" viewBox="0 0 16.933 16.933" xmlns="http://www.w3.org/2000/svg">
 <defs>
  <filter id="f" x="-.06" y="-.06" width="1.12" height="1.12" color-interpolation-filters="sRGB">
   <feGaussianBlur stdDeviation="1.2"/>
  </filter>
 </defs>
 <g>
  <circle cx="8.4665" cy="8.4665" r="7.1436" fill="#29aae2" stroke-width=".37419"/>
  <circle transform="matrix(.26458 0 0 .26458 4.6919e-6 1.9752e-5)" cx="32" cy="32" r="24" fill="#29aae2" filter="url(#f)" opacity=".15" stroke-width="1.5715"/>
  <circle cx="8.4665" cy="8.4665" r="6.0853" fill="#fff" stroke-width=".39846"/>
  <circle cx="8.4718" cy="8.4782" r="0" fill="#29aae2" stroke-width=".41578"/>
 </g>
 <path d="m4.7624 4.7624v7.4082h3.3673v-1.6837h-1.6837v-4.0409h1.6837v-1.6837h-1.7211zm4.0409 0v1.6837h1.6837v4.0409h-1.6837v1.6837h3.3673v-7.4082h-3.3673z" fill="#4d4d4d" stroke-width=".26458"/>
</svg>
